layouts/icon-pack/spell_evade.svg

<?xml version="1.0" encoding="UTF-8"?>
<svg width="1200pt" height="1200pt" version="1.1" viewBox="0 0 1200 1200" xmlns="http://www.w3.org/2000/svg">
 <g fill="#fff">
  <path d="m1038.8 594.4c-26.953-17.344-55.805-39.094-72.492-52.008-8.8984-6.9648-14.086-17.645-14.062-28.945v-25.781c-0.003906-10.195 4.2422-19.93 11.719-26.859 18.828-17.848 35.891-37.473 50.953-58.594 3.9531-5.4766 8.7461-10.293 14.203-14.273 28.805-20.953 28.805-44.672 28.805-44.672 0.72656-53.32-35.156-38.227-35.156-38.227 16.031-192.54-122.79-193.9-122.79-193.9s-138.91 1.4531-122.74 193.88c0 0-35.977-15.094-35.156 38.227 0 0 0 23.695 28.781 44.672 5.4648 3.9805 10.266 8.7969 14.227 14.273 15.062 21.121 32.125 40.746 50.953 58.594 7.4766 6.9297 11.723 16.664 11.719 26.859v25.781c0.023438 11.293-5.1641 21.965-14.062 28.922-16.688 12.938-45.539 34.688-72.516 52.031 0 0-86.719 59.25-86.719 130.97v367.97c0 9.1758 3.6445 17.973 10.133 24.461 6.4883 6.4883 15.285 10.133 24.461 10.133h382.03c9.1758 0 17.973-3.6445 24.461-10.133 6.4883-6.4883 10.133-15.285 10.133-24.461v-367.95c-0.21094-71.719-86.883-130.97-86.883-130.97zm-191.02-259.85c-11.719 0-21.281-11.906-21.281-26.578s9.5391-26.602 21.281-26.602c11.742 0 21.281 11.906 21.281 26.602s-9.5391 26.578-21.281 26.578zm82.945-26.578c0-14.695 9.5391-26.602 21.281-26.602s21.258 11.906 21.258 26.602-9.5156 26.578-21.258 26.578-21.281-11.906-21.281-26.578z"/>
  <path d="m685.78 404.46c-19.312-26.227-35.625-50.93-42.188-83.461-7.1953-36.188-1.6875-73.453 9.1406-108.33 6.0039-18.645 13.52-36.766 22.477-54.188 9.1641-17.859 20.039-34.266 25.312-53.648 2.8359-10.523-10.102-22.945-20.086-15.445-27.281 20.508-44.531 54.539-58.102 85.266-14.273 32.25-23.719 65.625-25.57 100.9-1.9688 33.691 3.8789 67.379 17.086 98.438 12.891 29.719 36.773 51.961 51.023 80.672 31.359 63.281-56.906 113.7-87.211 157.76-41.227 59.977-30.234 144.49-30.469 213.28l-1.1719 278.41c-0.14063 29.906 46.312 29.953 46.477 0 0.46875-79.547 0.92969-159.09 1.3828-238.64 0.23438-39.469 0.35156-78.938 0.70313-118.41 0.30469-33.352 0.67969-68.836 16.406-99.141 15.469-29.648 42.914-50.414 64.57-75.211 20.672-23.695 37.781-51.352 40.805-83.273 3.0234-31.922-12.164-59.977-30.586-84.984z"/>
  <path d="m532.71 143.58c10.172-14.062 21.562-26.227 25.617-43.406 0.94531-3.7188-0.13672-7.6562-2.8516-10.367-2.7109-2.7148-6.6484-3.7969-10.367-2.8516-28.828 7.5234-50.25 39.023-66.656 62.367-19.16 26.953-33.023 57.305-40.852 89.438-7.6875 33.5-7.5 68.324 0.53906 101.74 8.0625 33.914 27.047 62.367 38.883 94.688 26.531 72.398-45.773 129.66-70.477 191.67-27.047 67.5-19.312 145.17-18.492 216.26l1.5469 130.62c0.25781 22.852 0.46875 45.703 0.79688 68.578 0.25781 18.328-2.5312 41.953 4.6875 59.555 1.2578 6.9805 3.3203 13.789 6.1406 20.297 5.1328 11.391 24.188 10.898 29.461 0 13.453-27.82 9.1875-66.375 9.6094-96.656 0.21875-16.312-0.054687-32.617-0.82031-48.914-0.51562-11.016-0.53906-20.977-3.3281-30.352-0.23438-21.312-0.46094-42.625-0.67969-63.938-0.39844-38.578-1.0547-77.156-1.1719-115.73 0-33.258 0.42188-66.961 8.6719-99.352 17.133-67.312 77.531-115.01 85.312-185.74 3.8438-34.922-9.375-65.789-24.703-96.352-15.047-30.164-26.812-60.938-27.328-95.109-0.51562-35.484 10.617-70.102 27.539-100.97 8.707-15.73 18.367-30.914 28.922-45.469z"/>
  <path d="m311.84 206.74c3.8086-19.023 9.4766-37.629 16.922-55.547 7.875-18.492 21.094-35.648 21.094-56.438 0-7.8281-8.1094-14.789-15.961-12.164-35.156 11.719-52.688 64.406-61.875 96.656-11.02 38.727-14.148 79.27-9.2109 119.23 5.5781 44.391 23.602 84.094 37.5 126.21 12.398 37.617 20.508 80.484-0.91406 116.46-15.727 26.414 25.477 50.414 41.156 24.047 48.188-81.117-5.0391-164.53-25.781-244.34-9.6836-37.316-10.684-76.355-2.9297-114.12z"/>
  <path d="m299.58 640.22c-2.8594-4.4297-7.5234-9.1641-12.961-9.9844-3.8516-0.92188-7.8672-0.92188-11.719 0-2.4453 0.36328-4.7891 1.2266-6.8906 2.5312-4.8594 2.9609-8.4414 7.6211-10.055 13.078-1.2188 4.3125-2.0742 8.7188-2.5547 13.172 0.23437 5.9141 2.5703 11.547 6.5859 15.891 3.5312 3.375 8.0469 5.5352 12.891 6.1641 4.9453 0.81641 10.02-0.11719 14.344-2.6484 4.9375-3.1133 8.6016-7.8828 10.336-13.453 0.53906-1.6172 1.0312-3.2109 1.5-4.8516 0.95703-2.2695 1.4531-4.707 1.4531-7.1719 0.41016-4.4453-0.61719-8.9062-2.9297-12.727z"/>
  <path d="m287.18 927.94c0-30.703-0.30469-61.359-1.125-92.062-0.39844-15.234-0.32813-30.469-2.5547-45.609-1.9453-13.336-1.6406-29.484-12.562-38.602-4.8242-4.5234-12.332-4.5234-17.156 0-10.43 8.6953-10.219 23.016-12.188 35.742-2.3438 15-2.3438 30.047-2.8594 45.188-0.84375 31.805-1.1719 63.539-1.2188 95.344v92.086c0 29.25-3.3984 63.281 13.359 89.062 2.4766 4.0312 6.8711 6.4883 11.602 6.4883 4.7305 0 9.125-2.457 11.602-6.4883 16.195-24.961 13.383-57.375 13.359-85.711z"/>
  <path d="m156.52 68.766c-16.102 7.2891-26.391 26.32-34.148 41.508-8.375 16.645-14.754 34.219-19.008 52.359-6.8438 28.664 37.5 40.898 44.156 12.188 3.4023-15.246 8.4961-30.062 15.188-44.18 6.5391-13.594 17.602-26.648 20.109-41.578 2.6016-16.125-11.531-26.953-26.297-20.297z"/>
  <path d="m95.156 277.9c1.8594 3.1953 4.5156 5.8516 7.7109 7.7109 3.2969 1.9102 7.0391 2.918 10.852 2.918s7.5547-1.0078 10.852-2.918c2.1211-1.1914 4.0742-2.6562 5.8125-4.3594 1.4727-1.543 2.7812-3.2305 3.9141-5.0391 0.20312-0.32422 0.38281-0.66016 0.53906-1.0078 0.94141-1.8438 1.7227-3.7656 2.3438-5.7422 0.27734-1.2266 0.47266-2.4727 0.58594-3.7266 0.5-3.4258 0.36719-6.9141-0.39844-10.289-0.60156-2.7227-1.9023-5.2422-3.7734-7.3125-1.4805-2.2891-3.5195-4.1602-5.9297-5.4375l-5.0625-2.1328c-2.7266-0.88281-5.6406-1.0117-8.4375-0.375-1.8672 0-3.7031 0.49219-5.3203 1.4297-1.9805 0.64062-3.8125 1.668-5.3906 3.0234l-0.67969 0.30469c-2.4023 1.2852-4.4453 3.1523-5.9297 5.4375-1.8477 2.0391-3.1445 4.5156-3.7734 7.1953-0.82422 3.0508-1.1172 6.2227-0.86719 9.375-0.027344 3.8477 0.99609 7.6328 2.9531 10.945z"/>
  <path d="m114.4 716.41c-7.3359-15.422-27.328-8.2969-32.461 4.2422-8.3672 20.438-5.3672 47.789-5.5078 69.586-0.14063 23.766-0.51563 47.555-0.5625 71.344 0 47.555-2.1328 95.227-1.0312 142.66 0.70312 30.469 44.109 29.578 46.734 0 4.2891-48.375 3.9844-97.289 4.0781-145.92 0-23.789-0.67969-47.555-1.4531-71.344-0.77344-22.922 0.16406-49.547-9.7969-70.57z"/>
  <path d="m118.48 1090.1c-0.55469-2.6484-1.5859-5.1758-3.0469-7.4531-3.4414-5.207-9.2031-8.418-15.445-8.6016-0.52344-0.035156-1.0469-0.035156-1.5703 0-8.5547 0.375-17.883 6-19.688 15l-0.28125 1.0547c-0.73047 1.3867-1.2812 2.8594-1.6406 4.3828-0.97656 5.4102-1.2539 10.926-0.82031 16.406-0.375 11.719 10.594 22.992 22.453 22.453 5.918-0.12109 11.559-2.5234 15.746-6.707 4.1836-4.1875 6.5859-9.8281 6.707-15.746 0.43359-5.4805 0.15625-10.996-0.82031-16.406-0.33594-1.5234-0.875-2.9961-1.5938-4.3828z"/>
  <path d="m131.44 350.37c-8.7188-6.3047-22.242 2.1328-21.633 12.422 1.2422 21.094 11.039 41.227 13.453 62.414 2.3633 22.875 0.10156 45.988-6.6562 67.969-6.7031 22.547-16.008 44.18-22.031 66.938-5.8594 22.195-15.492 53.367-8.5312 75.75 5.3672 17.18 31.289 22.875 40.359 5.2734 6.7031-12.984 6.6094-26.953 9.1406-41.133 2.4844-14.07 5.7461-27.988 9.7734-41.695 7.0312-23.977 17.156-47.133 21.469-71.836 7.5469-42.516 2.9531-108.35-35.344-136.1z"/>
 </g>
</svg>

<?xml version="1.0" encoding="UTF-8" standalone="no"?>
<!DOCTYPE svg PUBLIC "-//W3C//DTD SVG 1.1//EN" "http://www.w3.org/Graphics/SVG/1.1/DTD/svg11.dtd">
<svg width="100%" height="100%" viewBox="0 0 505 512" version="1.1" xmlns="http://www.w3.org/2000/svg" xmlns:xlink="http://www.w3.org/1999/xlink" xml:space="preserve" xmlns:serif="http://www.serif.com/" style="fill-rule:evenodd;clip-rule:evenodd;stroke-linejoin:round;stroke-miterlimit:2;">
    <g transform="matrix(1,0,0,1,-74.5216,-66.7719)">
        <g transform="matrix(0.480035,0,0,0.480035,38.7486,34.719)">
            <path d="M1038.8,594.4C1011.85,577.056 982.995,555.306 966.308,542.392C957.41,535.427 952.222,524.747 952.246,513.447L952.246,487.666C952.242,477.471 956.488,467.736 963.965,460.807C982.793,442.959 999.856,423.334 1014.92,402.213C1018.87,396.736 1023.66,391.92 1029.12,387.94C1057.93,366.987 1057.93,343.268 1057.93,343.268C1058.65,289.948 1022.77,305.041 1022.77,305.041C1038.8,112.501 899.98,111.141 899.98,111.141C899.98,111.141 761.07,112.594 777.24,305.021C777.24,305.021 741.263,289.927 742.084,343.248C742.084,343.248 742.084,366.943 770.865,387.92C776.33,391.9 781.131,396.717 785.092,402.193C800.154,423.314 817.217,442.939 836.045,460.787C843.522,467.717 847.768,477.451 847.764,487.646L847.764,513.427C847.787,524.72 842.6,535.392 833.702,542.349C817.014,555.287 788.163,577.037 761.186,594.38C761.186,594.38 674.467,653.63 674.467,725.35L674.467,1093.32C674.467,1102.5 678.112,1111.29 684.6,1117.78C691.088,1124.27 699.885,1127.91 709.061,1127.91L1091.09,1127.91C1100.27,1127.91 1109.06,1124.27 1115.55,1117.78C1122.04,1111.29 1125.68,1102.5 1125.68,1093.32L1125.68,725.37C1125.47,653.651 1038.8,594.4 1038.8,594.4L1038.8,594.4ZM847.78,334.55C836.061,334.55 826.499,322.644 826.499,307.972C826.499,293.3 836.038,281.37 847.78,281.37C859.522,281.37 869.061,293.276 869.061,307.972C869.061,322.668 859.522,334.55 847.78,334.55ZM930.725,307.972C930.725,293.277 940.264,281.37 952.006,281.37C963.748,281.37 973.264,293.276 973.264,307.972C973.264,322.668 963.748,334.55 952.006,334.55C940.264,334.55 930.725,322.644 930.725,307.972Z" style="fill:white;fill-rule:nonzero;"/>
            <path d="M685.78,404.46C666.468,378.233 650.155,353.53 643.592,320.999C636.397,284.811 641.905,247.546 652.733,212.669C658.737,194.024 666.253,175.903 675.21,158.481C684.374,140.622 695.249,124.215 700.522,104.833C703.358,94.31 690.42,81.888 680.436,89.388C653.155,109.896 635.905,143.927 622.334,174.654C608.061,206.904 598.615,240.279 596.764,275.554C594.795,309.245 600.642,342.933 613.85,373.992C626.741,403.711 650.623,425.953 664.873,454.664C696.232,517.945 607.967,568.364 577.662,612.424C536.435,672.401 547.428,756.914 547.193,825.704L546.021,1104.11C545.88,1134.02 592.333,1134.07 592.498,1104.11C592.966,1024.57 593.427,945.024 593.88,865.474C594.115,826.005 594.232,786.536 594.584,747.064C594.888,713.712 595.263,678.228 610.99,647.923C626.459,618.275 653.904,597.509 675.56,572.712C696.232,549.017 713.341,521.36 716.365,489.439C719.388,457.517 704.201,429.462 685.779,404.455L685.78,404.46Z" style="fill:white;fill-rule:nonzero;"/>
            <path d="M532.71,143.58C542.882,129.518 554.272,117.353 558.327,100.174C559.272,96.455 558.19,92.518 555.475,89.807C552.765,87.092 548.827,86.01 545.108,86.955C516.28,94.479 494.858,125.978 478.452,149.322C459.292,176.275 445.429,206.627 437.6,238.76C429.913,272.26 430.1,307.084 438.139,340.5C446.202,374.414 465.186,402.867 477.022,435.188C503.553,507.586 431.249,564.848 406.545,626.858C379.498,694.358 387.233,772.028 388.053,843.118L389.6,973.738C389.858,996.59 390.069,1019.44 390.397,1042.32C390.655,1060.64 387.866,1084.27 395.085,1101.87C396.343,1108.85 398.405,1115.66 401.225,1122.17C406.358,1133.56 425.413,1133.07 430.686,1122.17C444.139,1094.35 439.874,1055.79 440.296,1025.51C440.514,1009.2 440.241,992.895 439.475,976.598C438.96,965.582 438.936,955.621 436.147,946.246C435.913,924.934 435.686,903.621 435.468,882.308C435.069,843.73 434.413,805.152 434.296,766.578C434.296,733.32 434.718,699.617 442.968,667.226C460.101,599.914 520.499,552.216 528.28,481.486C532.123,446.564 518.905,415.697 503.577,385.134C488.53,354.97 476.765,324.196 476.249,290.025C475.733,254.541 486.866,219.923 503.788,189.055C512.495,173.325 522.155,158.141 532.71,143.586L532.71,143.58Z" style="fill:white;fill-rule:nonzero;"/>
            <path d="M311.84,206.74C315.649,187.717 321.317,169.111 328.762,151.193C336.637,132.701 349.856,115.545 349.856,94.755C349.856,86.927 341.747,79.966 333.895,82.591C298.739,94.31 281.207,146.997 272.02,179.247C261,217.974 257.872,258.517 262.809,298.477C268.387,342.868 286.411,382.571 300.309,424.687C312.707,462.304 320.817,505.171 299.395,541.147C283.668,567.561 324.872,591.561 340.551,565.194C388.739,484.077 335.512,400.664 314.77,320.854C305.086,283.538 304.086,244.499 311.84,206.734L311.84,206.74Z" style="fill:white;fill-rule:nonzero;"/>
            <path d="M299.58,640.22C296.721,635.79 292.057,631.056 286.619,630.236C282.767,629.314 278.752,629.314 274.9,630.236C272.455,630.599 270.111,631.462 268.009,632.767C263.15,635.728 259.568,640.388 257.954,645.845C256.736,650.157 255.88,654.564 255.4,659.017C255.634,664.931 257.97,670.564 261.986,674.908C265.517,678.283 270.032,680.443 274.877,681.072C279.822,681.888 284.897,680.955 289.221,678.423C294.158,675.31 297.822,670.541 299.557,664.97C300.096,663.353 300.588,661.76 301.057,660.119C302.014,657.849 302.51,655.412 302.51,652.947C302.92,648.502 301.893,644.041 299.58,640.22Z" style="fill:white;fill-rule:nonzero;"/>
            <path d="M287.18,927.94C287.18,897.237 286.875,866.581 286.055,835.878C285.657,820.644 285.727,805.409 283.5,790.269C281.555,776.933 281.86,760.785 270.938,751.667C266.114,747.144 258.606,747.144 253.782,751.667C243.352,760.362 243.563,774.683 241.594,787.409C239.25,802.409 239.25,817.456 238.735,832.597C237.891,864.402 237.563,896.136 237.516,927.941L237.516,1020.03C237.516,1049.28 234.118,1083.31 250.875,1109.09C253.352,1113.12 257.746,1115.58 262.477,1115.58C267.208,1115.58 271.602,1113.12 274.079,1109.09C290.274,1084.13 287.462,1051.71 287.438,1023.38L287.18,927.94Z" style="fill:white;fill-rule:nonzero;"/>
            <path d="M156.52,68.766C140.418,76.055 130.129,95.086 122.372,110.274C113.997,126.919 107.618,144.493 103.364,162.633C96.52,191.297 140.864,203.531 147.52,174.821C150.922,159.575 156.016,144.759 162.708,130.641C169.247,117.047 180.31,103.993 182.817,89.063C185.419,72.938 171.286,62.11 156.52,68.766Z" style="fill:white;fill-rule:nonzero;"/>
            <path d="M95.156,277.9C97.015,281.095 99.672,283.752 102.867,285.611C106.164,287.521 109.906,288.529 113.719,288.529C117.532,288.529 121.274,287.521 124.571,285.611C126.692,284.419 128.645,282.955 130.383,281.251C131.856,279.708 133.165,278.021 134.297,276.212C134.501,275.888 134.68,275.552 134.837,275.205C135.778,273.361 136.559,271.439 137.18,269.462C137.458,268.236 137.653,266.99 137.766,265.736C138.266,262.31 138.133,258.822 137.368,255.447C136.766,252.724 135.466,250.205 133.594,248.134C132.114,245.845 130.075,243.974 127.665,242.697L122.602,240.564C119.876,239.681 116.962,239.552 114.165,240.189C112.298,240.189 110.462,240.681 108.844,241.619C106.864,242.259 105.032,243.287 103.454,244.642L102.774,244.947C100.372,246.232 98.329,248.099 96.844,250.384C94.997,252.423 93.7,254.9 93.071,257.58C92.247,260.63 91.954,263.802 92.204,266.955C92.177,270.802 93.2,274.587 95.157,277.9L95.156,277.9Z" style="fill:white;fill-rule:nonzero;"/>
            <path d="M114.4,716.41C107.064,700.988 87.072,708.113 81.939,720.652C73.572,741.09 76.572,768.441 76.431,790.238C76.291,814.004 75.916,837.793 75.869,861.582C75.869,909.137 73.736,956.809 74.838,1004.24C75.541,1034.71 118.947,1033.82 121.572,1004.24C125.861,955.867 125.556,906.953 125.65,858.322C125.65,834.533 124.97,810.767 124.197,786.978C123.423,764.056 124.361,737.431 114.4,716.408L114.4,716.41Z" style="fill:white;fill-rule:nonzero;"/>
            <path d="M118.48,1090.1C117.925,1087.45 116.894,1084.92 115.433,1082.65C111.992,1077.44 106.23,1074.23 99.988,1074.05C99.465,1074.01 98.941,1074.01 98.418,1074.05C89.863,1074.42 80.535,1080.05 78.73,1089.05L78.449,1090.1C77.718,1091.49 77.167,1092.96 76.808,1094.48C75.831,1099.89 75.554,1105.41 75.988,1110.89C75.613,1122.61 86.582,1133.88 98.441,1133.34C104.359,1133.22 110,1130.82 114.187,1126.63C118.37,1122.45 120.773,1116.81 120.894,1110.89C121.327,1105.41 121.05,1099.89 120.073,1094.48C119.737,1092.96 119.198,1091.49 118.48,1090.1L118.48,1090.1Z" style="fill:white;fill-rule:nonzero;"/>
            <path d="M131.44,350.37C122.721,344.065 109.198,352.503 109.807,362.792C111.049,383.886 120.846,404.019 123.26,425.206C125.623,448.081 123.362,471.194 116.604,493.175C109.901,515.722 100.596,537.355 94.573,560.113C88.713,582.308 79.081,613.48 86.042,635.863C91.409,653.043 117.331,658.738 126.401,641.136C133.104,628.152 133.01,614.183 135.541,600.003C138.026,585.933 141.287,572.015 145.315,558.308C152.346,534.331 162.471,511.175 166.784,486.472C174.331,443.956 169.737,378.122 131.44,350.372L131.44,350.37Z" style="fill:white;fill-rule:nonzero;"/>
        </g>
    </g>
</svg>
